packages/icons/brands/MiniMask.dark.svg

<svg width="48" height="48" viewBox="0 0 48 48" xmlns="http://www.w3.org/2000/svg">
<g>
        <g opacity="0.5" clip-path="url(#miniMask_clip0)">
            <path
                fill-rule="evenodd"
                clip-rule="evenodd"
                d="M24.0002 47.1862C36.4744 47.1862 46.5867 37.038 46.5867 24.5195C46.5867 12.0011 36.4744 1.85286 24.0002 1.85286C11.5259 1.85286 1.41358 12.0011 1.41358 24.5195C1.41358 37.038 11.5259 47.1862 24.0002 47.1862ZM47.9154 24.5195C47.9154 37.7744 37.2082 48.5195 24.0002 48.5195C10.7922 48.5195 0.0849609 37.7744 0.0849609 24.5195C0.0849609 11.2647 10.7922 0.519531 24.0002 0.519531C37.2082 0.519531 47.9154 11.2647 47.9154 24.5195Z"
                fill="rgba(0,0,0,0.2)"
            />
            <path
                fill-rule="evenodd"
                clip-rule="evenodd"
                d="M38.4348 18.6197V26.5898H14.2268L13.1853 26.5899C14.2877 31.4258 18.6626 35.0381 23.8917 35.0381C28.2147 35.0381 31.954 32.5691 33.7429 28.981L38.4348 28.9809V35.6757C38.4348 37.2603 37.1342 38.5449 35.5298 38.5449H12.2902C10.6858 38.5449 9.38525 37.2603 9.38525 35.6757V18.6197H38.4348ZM30.9567 28.9809C29.4161 31.2056 26.8265 32.6655 23.8917 32.6655C20.9568 32.6655 18.3672 31.2056 16.8267 28.9809H30.9567ZM17.6966 20.5325C15.4201 20.5325 13.5368 22.1952 13.2236 24.3582L15.6998 24.3582C15.9721 23.5257 16.7632 22.9235 17.6966 22.9235C18.6301 22.9235 19.4212 23.5257 19.6935 24.3582L22.1697 24.3582C21.8565 22.1952 19.9732 20.5325 17.6966 20.5325ZM30.1234 20.5325C27.8469 20.5325 25.9636 22.1952 25.6503 24.3582L28.1265 24.3582C28.3988 23.5257 29.1899 22.9235 30.1234 22.9235C31.0569 22.9235 31.848 23.5257 32.1202 24.3582L34.5964 24.3582C34.2832 22.1952 32.3999 20.5325 30.1234 20.5325ZM35.5298 9.85254C37.1342 9.85254 38.4348 11.1371 38.4348 12.7218V16.2286H9.38525V12.7218C9.38525 11.1371 10.6858 9.85254 12.2902 9.85254H35.5298Z"
                fill="rgba(0,0,0,0.2)"
            />
        </g>
        <defs>
            <clipPath id="miniMask_clip0">
                <rect width="47.8304" height="48" fill="white" transform="translate(0.0849609 0.519531)" />
            </clipPath>
        </defs>
    </g>
</svg>

<svg xmlns="http://www.w3.org/2000/svg" viewBox="0 0 48 48">
    <g fill="rgba(0,0,0,0.2)" fill-rule="evenodd" clip-path="url(#MiniMask_dark_svg__a)" clip-rule="evenodd" opacity=".5">
        <path d="M24 47.186c12.474 0 22.587-10.148 22.587-22.666C46.587 12 36.474 1.852 24 1.852S1.414 12 1.414 24.519c0 12.519 10.112 22.667 22.586 22.667ZM47.915 24.52c0 13.254-10.707 24-23.915 24-13.208 0-23.915-10.746-23.915-24 0-13.255 10.707-24 23.915-24 13.208 0 23.915 10.745 23.915 24Z"/>
        <path d="M38.435 18.62v7.97h-25.25c1.103 4.836 5.478 8.448 10.707 8.448 4.323 0 8.062-2.469 9.85-6.057h4.693v6.695c0 1.584-1.3 2.869-2.905 2.869H12.29c-1.604 0-2.905-1.285-2.905-2.87V18.62h29.05Zm-7.478 10.36a8.574 8.574 0 0 1-7.065 3.686 8.574 8.574 0 0 1-7.065-3.685h14.13Zm-13.26-8.448c-2.277 0-4.16 1.663-4.473 3.826H15.7a2.097 2.097 0 0 1 1.997-1.434c.933 0 1.724.602 1.997 1.434h2.476c-.314-2.163-2.197-3.826-4.473-3.826Zm12.426 0c-2.276 0-4.16 1.663-4.473 3.826h2.477a2.097 2.097 0 0 1 1.996-1.434c.934 0 1.725.602 1.997 1.434h2.476c-.313-2.163-2.196-3.826-4.473-3.826Zm5.407-10.68c1.604 0 2.905 1.285 2.905 2.87v3.507H9.385v-3.507c0-1.585 1.3-2.87 2.905-2.87h23.24Z"/>
    </g>
    <defs>
        <clipPath id="MiniMask_dark_svg__a">
            <path fill="#fff" d="M0 0h47.83v48H0z" transform="translate(.085 .52)"/>
        </clipPath>
    </defs>
</svg>
